Papirus/32x32/apps/keepassx.svg

<?xml version="1.0" encoding="UTF-8" standalone="no"?>
<svg xmlns="http://www.w3.org/2000/svg" height="32" width="32" version="1">
 <path d="M 21.009165,4.018576 C 20.121028,3.953492 19.186043,4.059586 18.262965,4.3348294 15.548489,5.0538447 13.619379,6.9675357 12.655737,9.3538875 12.285311,8.9752978 11.89919,8.5677943 11.53468,8.1923396 10.102993,6.9272828 8.8212571,6.8285943 7.0290456,7.0835631 2.5909014,8.3190411 2.4596717,12.301319 3.6152727,14.591589 c 0.1680221,0.321284 0.3788576,0.618138 0.6267018,0.882386 1.030655,1.101703 1.9185293,2.024018 2.8902238,3.010264 -0.831775,0.88181 -1.7574824,1.841673 -2.5457325,2.617874 -1.0501148,1.122115 -1.5472478,2.816421 -1.5278286,4.355317 -0.2331131,2.321625 1.5570222,4.483142 3.8828259,4.532009 0.6889288,0.01434 1.3970692,0.01564 2.1233901,-0.0059 1.0547768,-0.03108 2.0542358,-0.614123 2.7792848,-1.38314 0.364166,-0.386299 0.698529,-0.737607 1.045152,-1.104935 0.211199,-0.02314 0.106537,-0.0018 0.521603,-0.04685 0.621609,-0.06894 1.218326,-0.283606 1.74192,-0.626651 0.177399,0.192527 0.413552,0.427518 0.579991,0.61689 0.05334,0.06088 0.108507,0.120128 0.165434,0.177648 0.02473,0.02491 0.485072,0.853233 1.901514,1.739394 0.567314,0.354926 1.214519,0.561022 1.88205,0.59932 0.655826,0.03766 1.438622,0.0623 2.337482,-0.041 1.431698,-0.164805 3.06216,-1.091831 3.62,-2.424608 0.776869,-1.892287 0.112012,-4.517242 -1.187152,-5.85264 C 24.213989,21.400595 23.975926,21.162908 23.737848,20.926373 24.074557,20.772738 24.421,20.673321 24.74602,20.465658 29.196229,17.793134 30.231824,12.148085 27.488327,7.95999 25.658609,5.7153796 24.134364,4.0607868 21.009165,4.018576 Z" style="opacity:0.2;fill:#020401;stroke-width:7.98403692;stroke-linejoin:round"/>
 <path style="fill:#7ec242;stroke-width:7.98403692;stroke-linejoin:round" d="m 21.009165,3.0185756 c -0.888137,-0.065084 -1.823122,0.04101 -2.7462,0.3162534 C 15.548489,4.0538443 13.619379,5.9675353 12.655737,8.3538871 12.285311,7.9752974 11.89919,7.5677939 11.53468,7.1923392 10.102993,5.9272824 8.8212571,5.8285939 7.0290456,6.0835627 2.5909014,7.3190407 2.4596717,11.301319 3.6152727,13.591589 c 0.1680221,0.321284 0.3788576,0.618138 0.6267018,0.882386 1.030655,1.101703 1.9185293,2.024018 2.8902238,3.010264 -0.831775,0.88181 -1.7574824,1.841673 -2.5457325,2.617874 -1.0501148,1.122115 -1.5472478,2.816421 -1.5278286,4.355317 -0.2331131,2.321625 1.5570222,4.483142 3.8828259,4.532009 0.6889288,0.01434 1.3970692,0.01564 2.1233901,-0.0059 1.0547768,-0.03108 2.0542358,-0.614123 2.7792848,-1.38314 0.364166,-0.386299 0.698529,-0.737607 1.045152,-1.104935 0.211199,-0.02314 0.106537,-0.0018 0.521603,-0.04685 0.621609,-0.06894 1.218326,-0.283606 1.74192,-0.626651 0.177399,0.192527 0.413552,0.427518 0.579991,0.61689 0.05334,0.06088 0.108507,0.120128 0.165434,0.177648 0.02473,0.02491 0.485072,0.853233 1.901514,1.739394 0.567314,0.354926 1.214519,0.561022 1.88205,0.59932 0.655826,0.03766 1.438622,0.0623 2.337482,-0.041 1.431698,-0.164805 3.06216,-1.091831 3.62,-2.424608 0.776869,-1.892287 0.112012,-4.517242 -1.187152,-5.85264 -0.238143,-0.236372 -0.476206,-0.474059 -0.714284,-0.710594 0.336709,-0.153635 0.683152,-0.253052 1.008172,-0.460715 4.450209,-2.672524 5.485804,-8.317573 2.742307,-12.5056684 -1.829718,-2.2446104 -3.353963,-3.8992032 -6.479162,-3.941414 z"/>
 <path opacity=".2" d="m20.767 8.0102c-0.45976-0.03359-0.92493 0.01289-1.374 0.15381-1.7464 0.42924-3.0717 2.0181-3.3633 3.769-0.2901 0.90138 0.0128 1.8088 0.16699 2.6982-0.50596 0.79083-1.2132 1.4375-1.7915 2.1767-0.211-0.138-0.397-0.309-0.564-0.496-1.683-1.81-3.431-3.556-5.155-5.3264-0.55429-0.000975-1.1084 0.00075-1.6626 0 0.05299 0.57718-0.1505 1.232 0.12451 1.7578 1.8249 1.9448 3.7853 3.7673 5.5503 5.7656-1.8376 1.7526-3.5049 3.6757-5.3174 5.4551-0.60392 0.45002-0.2921 1.2717-0.35596 1.9058 0.64315 0.01335 1.2876 0.01458 1.9307-0.0044 0.66027-0.69828 1.3149-1.403 1.9863-2.0903 0.66066-0.2179 1.3736-0.2171 2.061-0.2915 0.01723-0.80646 0.000033-1.6137 0.0205-2.4199 0.70071-0.06439 1.4025-0.1119 2.1064-0.11865 1.1923 1.3047 2.465 2.5349 3.6343 3.8613 0.39127 0.39271 0.7152 0.87219 1.1909 1.1689 0.55289 0.03165 1.1114 0.04117 1.6626-0.02198 0.189-0.45022 0.04066-0.98212 0.08203-1.4634-1.772-1.7535-3.5411-3.51-5.31-5.2661l-0.04834-0.13623c0.47778-0.77832 1.2178-1.3666 1.771-2.0947 1.3668 0.87643 3.2246 1.001 4.6069 0.09082 2.3322-1.362 2.9629-4.7645 1.4868-6.9697-0.72699-1.1778-2.0602-2.0028-3.4394-2.1035zm0.8584 1.4897a1.875 1.875 0 0 1 1.875 1.875 1.875 1.875 0 0 1 -1.875 1.875 1.875 1.875 0 0 1 -1.875 -1.875 1.875 1.875 0 0 1 1.875 -1.875z"/>
 <path d="M 20.767578 7.0097656 C 20.307818 6.9761756 19.841648 7.0231425 19.392578 7.1640625 C 17.646178 7.5933025 16.320897 9.1826937 16.029297 10.933594 C 15.739197 11.834974 16.043076 12.741459 16.197266 13.630859 C 15.691306 14.421689 14.982597 15.069394 14.404297 15.808594 C 14.193297 15.670594 14.008797 15.4995 13.841797 15.3125 C 12.158797 13.5025 10.409547 11.756728 8.6855469 9.9863281 C 8.1312569 9.9853531 7.5776375 9.9870781 7.0234375 9.9863281 C 7.0764275 10.563508 6.8734275 11.218341 7.1484375 11.744141 C 8.9733375 13.688941 10.934219 15.511466 12.699219 17.509766 C 10.861619 19.262366 9.1933594 21.185444 7.3808594 22.964844 C 6.7769394 23.414864 7.0892506 24.235041 7.0253906 24.869141 C 7.6685406 24.882491 8.3119781 24.884214 8.9550781 24.865234 C 9.6153481 24.166954 10.270006 23.462691 10.941406 22.775391 C 11.602066 22.557491 12.316506 22.558775 13.003906 22.484375 C 13.021136 21.677915 13.002971 20.870653 13.023438 20.064453 C 13.724148 20.000063 14.426959 19.952062 15.130859 19.945312 C 16.323159 21.250013 17.594372 22.480241 18.763672 23.806641 C 19.154942 24.199351 19.479378 24.677899 19.955078 24.974609 C 20.507968 25.006259 21.065987 25.016275 21.617188 24.953125 C 21.806188 24.502905 21.657849 23.971514 21.699219 23.490234 C 19.927219 21.736734 18.159525 19.980709 16.390625 18.224609 L 16.341797 18.087891 C 16.819577 17.309571 17.560081 16.720287 18.113281 15.992188 C 19.480081 16.868617 21.33645 16.994164 22.71875 16.083984 C 25.05095 14.721984 25.683131 11.320434 24.207031 9.1152344 C 23.480041 7.9374344 22.146778 7.1124187 20.767578 7.0117188 L 20.767578 7.0097656 z M 21.625 8.5 A 1.875 1.875 0 0 1 23.5 10.375 A 1.875 1.875 0 0 1 21.625 12.25 A 1.875 1.875 0 0 1 19.75 10.375 A 1.875 1.875 0 0 1 21.625 8.5 z" style="fill:#ffffff"/>
 <path style="opacity:0.2;fill:#ffffff;stroke-width:7.98403692;stroke-linejoin:round" d="M 20.335938 3.0019531 C 19.655021 3.0172368 18.95598 3.1275518 18.263672 3.3339844 C 15.549196 4.0529997 13.619892 5.9671638 12.65625 8.3535156 C 12.285824 7.9749259 11.899666 7.5668609 11.535156 7.1914062 C 10.103469 5.9263495 8.8215084 5.8290156 7.0292969 6.0839844 C 3.7824871 6.9878221 2.8465447 9.3607514 3.0273438 11.466797 C 3.1953019 9.655163 4.2900564 7.8465264 7.0292969 7.0839844 C 8.8215084 6.8290156 10.103469 6.9263495 11.535156 8.1914062 C 11.899666 8.566861 12.285824 8.9749259 12.65625 9.3535156 C 13.619892 6.9671638 15.549196 5.0529997 18.263672 4.3339844 C 19.18675 4.058741 20.121629 3.9544472 21.009766 4.0195312 C 24.134965 4.061742 25.658563 5.7163271 27.488281 7.9609375 C 28.401124 9.3544414 28.887053 10.908003 28.976562 12.460938 C 29.078896 10.583887 28.59762 8.6544031 27.488281 6.9609375 C 25.658563 4.7163271 24.134965 3.0617421 21.009766 3.0195312 C 20.787731 3.0032602 20.56291 2.9968586 20.335938 3.0019531 z M 6.6503906 17.980469 C 5.9541071 18.711546 5.2248248 19.472441 4.5859375 20.101562 C 3.5358227 21.223678 3.0391746 22.918135 3.0585938 24.457031 C 3.0286987 24.754763 3.0328892 25.049543 3.0664062 25.337891 C 3.0730864 23.830857 3.5625049 22.195166 4.5859375 21.101562 C 5.3741876 20.325361 6.3010375 19.366185 7.1328125 18.484375 C 6.9703757 18.319506 6.8092012 18.142902 6.6503906 17.980469 z M 24.435547 20.621094 C 24.204328 20.72874 23.970458 20.819843 23.738281 20.925781 C 23.976359 21.162316 24.213029 21.400347 24.451172 21.636719 C 25.258025 22.466075 25.819238 23.793085 25.943359 25.132812 C 26.078022 23.487172 25.460291 21.673982 24.451172 20.636719 C 24.445945 20.631531 24.440774 20.626283 24.435547 20.621094 z"/>
</svg>

<?xml version="1.0" encoding="UTF-8" standalone="no"?>
<svg xmlns="http://www.w3.org/2000/svg" height="32" width="32" version="1">
 <rect ry="1.5" rx="1.5" transform="matrix(0,-1,-1,0,0,0)" height="28" width="28" y="-30" x="-30" fill="#7ec242"/>
 <path opacity=".2" d="m20.767 8.0102c-0.45976-0.03359-0.92493 0.01289-1.374 0.15381-1.7464 0.42924-3.0717 2.0181-3.3633 3.769-0.2901 0.90138 0.0128 1.8088 0.16699 2.6982-0.50596 0.79083-1.2132 1.4375-1.7915 2.1767-0.211-0.138-0.397-0.309-0.564-0.496-1.683-1.81-3.431-3.556-5.155-5.3264-0.55429-0.000975-1.1084 0.00075-1.6626 0 0.05299 0.57718-0.1505 1.232 0.12451 1.7578 1.8249 1.9448 3.7853 3.7673 5.5503 5.7656-1.8376 1.7526-3.5049 3.6757-5.3174 5.4551-0.60392 0.45002-0.2921 1.2717-0.35596 1.9058 0.64315 0.01335 1.2876 0.01458 1.9307-0.0044 0.66027-0.69828 1.3149-1.403 1.9863-2.0903 0.66066-0.2179 1.3736-0.2171 2.061-0.2915 0.01723-0.80646 0.000033-1.6137 0.0205-2.4199 0.70071-0.06439 1.4025-0.1119 2.1064-0.11865 1.1923 1.3047 2.465 2.5349 3.6343 3.8613 0.39127 0.39271 0.7152 0.87219 1.1909 1.1689 0.55289 0.03165 1.1114 0.04117 1.6626-0.02198 0.189-0.45022 0.04066-0.98212 0.08203-1.4634-1.772-1.7535-3.5411-3.51-5.31-5.2661l-0.04834-0.13623c0.47778-0.77832 1.2178-1.3666 1.771-2.0947 1.3668 0.87643 3.2246 1.001 4.6069 0.09082 2.3322-1.362 2.9629-4.7645 1.4868-6.9697-0.72699-1.1778-2.0602-2.0028-3.4394-2.1035zm0.8584 1.4897a1.875 1.875 0 0 1 1.875 1.875 1.875 1.875 0 0 1 -1.875 1.875 1.875 1.875 0 0 1 -1.875 -1.875 1.875 1.875 0 0 1 1.875 -1.875z"/>
 <path opacity=".1" fill="#fff" d="m3.5 2c-0.831 0-1.5 0.669-1.5 1.5v1c0-0.831 0.669-1.5 1.5-1.5h25c0.831 0 1.5 0.669 1.5 1.5v-1c0-0.831-0.669-1.5-1.5-1.5h-25z"/>
 <path fill="#fff" d="m20.767 7.0105c-0.45976-0.03359-0.92493 0.01289-1.374 0.15381-1.7464 0.42924-3.0717 2.0181-3.3633 3.769-0.2901 0.90138 0.0128 1.8088 0.16699 2.6982-0.50596 0.79083-1.2132 1.4375-1.7915 2.1767-0.211-0.138-0.397-0.309-0.564-0.496-1.683-1.81-3.431-3.556-5.155-5.3264-0.55429-0.000975-1.1084 0.00075-1.6626 0 0.05299 0.57718-0.1505 1.232 0.12451 1.7578 1.8249 1.9448 3.7853 3.7673 5.5503 5.7656-1.8376 1.7526-3.5049 3.6757-5.3174 5.4551-0.60392 0.45002-0.2921 1.2717-0.35596 1.9058 0.64315 0.01335 1.2876 0.01458 1.9307-0.0044 0.66027-0.69828 1.3149-1.403 1.9863-2.0903 0.66066-0.2179 1.3736-0.2171 2.061-0.2915 0.01723-0.80646 0.000033-1.6137 0.0205-2.4199 0.70071-0.06439 1.4025-0.1119 2.1064-0.11865 1.1923 1.3047 2.465 2.5349 3.6343 3.8613 0.39127 0.39271 0.7152 0.87219 1.1909 1.1689 0.55289 0.03165 1.1114 0.04117 1.6626-0.02198 0.189-0.45022 0.04066-0.98212 0.08203-1.4634-1.772-1.7535-3.5411-3.51-5.31-5.2661l-0.04834-0.13623c0.47778-0.77832 1.2178-1.3666 1.771-2.0947 1.3668 0.87643 3.2246 1.001 4.6069 0.09082 2.3322-1.362 2.9629-4.7645 1.4868-6.9697-0.72699-1.1778-2.0602-2.0028-3.4394-2.1035zm0.8584 1.4897a1.875 1.875 0 0 1 1.875 1.875 1.875 1.875 0 0 1 -1.875 1.875 1.875 1.875 0 0 1 -1.875 -1.875 1.875 1.875 0 0 1 1.875 -1.875z"/>
 <path opacity=".2" d="m2 28.5v1c0 0.831 0.669 1.5 1.5 1.5h25c0.831 0 1.5-0.669 1.5-1.5v-1c0 0.831-0.669 1.5-1.5 1.5h-25c-0.831 0-1.5-0.669-1.5-1.5z"/>
</svg>
